X:394
T: "Die Wecktrommel"
N: Z1074
O: Europa, Mitteleuropa, Deutschland, Franken
R: Soldaten - Lied
M: 4/4
L: 1/16
K: F
F2A2 | c2c2c2f2A4F4 | d4c4z4
F2A2 | c2c2c2c2d2c2B2A2 | A4G4z4
F2A2 | c6A2B2A2B2c2 | A4z8
f2d2 | c6A2c2B2A2G2 | F4z2
F2c2c2c2c2 | cABGz2
F2c2c2c2c2 | cABGz8
f2d2 | c6A2c2B2A2G2 | F4z8

@@@ Tune index: 10152
